X: 1
T:Miss Daly's Reel
M:2/4
L:1/16
R:reel
B:Ryan's Mammoth Collection
N:367
Z:Contributed by Ray Davies,  ray:davies99.freeserve.co.uk
K:G
vkgu((3B/c/B/AB) kgBkaB | kg((3B/c/B/AB) kdBAB |\
g((3B/c/B/AB) kgBkaB | egfe defa |
kg((3B/c/B/AB) kgBkaB | kg((3B/c/B/AB) kdBAB |\
g((3B/c/B/AB) kgBkaB | egfe defg |]
va2fd (Ad).f.d | "4"(ed).f.d "4"(ed).f.d |\
 a2fd (Ad).f.d | (eg).f.e (de).f.g |
 a2fd (Ad).f.d | "4"(ed).f.d "4"(ed).f.d |\
 afge fd"4"e^c | d^cd^d "0"e"1"^efa "_D.C."|]
